white/xzc.svg

<!-- Generated by IcoMoon.io -->
<svg version="1.1" xmlns="http://www.w3.org/2000/svg" width="32" height="32" viewBox="0 0 32 32">
<title>xzc</title>
<path fill="#fff" d="M16 32c-8.837 0-16-7.163-16-16s7.163-16 16-16 16 7.163 16 16-7.163 16-16 16zM18.725 19.148h3.39v2.964h-10.185l12.643-12.652c0.262-0.265 0.424-0.63 0.424-1.032 0-0.195-0.038-0.382-0.107-0.552l0.004 0.010c-0.227-0.525-0.741-0.886-1.338-0.886-0.002 0-0.003 0-0.005 0h-15.1c-0.003-0-0.007-0-0.010-0-0.795 0-1.44 0.645-1.44 1.44 0 0.004 0 0.008 0 0.013v-0.001 10.696l6.275-6.28h-3.39v-2.98h10.168l-12.626 12.652c-0.262 0.265-0.424 0.63-0.424 1.032 0 0.195 0.038 0.382 0.107 0.552l-0.004-0.010c0.229 0.535 0.748 0.886 1.343 0.886h15.1c0 0 0 0 0 0 0.801 0 1.45-0.649 1.45-1.45 0-0.001 0-0.001 0-0.002v0-10.68l-6.275 6.28z"></path>
</svg>

<svg xmlns="http://www.w3.org/2000/svg" width="32" height="32"><path fill="#FFF" fill-rule="evenodd" d="M16 32C7.163 32 0 24.837 0 16S7.163 0 16 0s16 7.163 16 16-7.163 16-16 16zm2.725-12.852h3.39v2.964H11.93L24.573 9.46a1.468 1.468 0 00.32-1.574A1.454 1.454 0 0023.55 7H8.45A1.44 1.44 0 007 8.452v10.696l6.275-6.28h-3.39v-2.98h10.168L7.427 22.54a1.468 1.468 0 00-.32 1.574c.229.535.748.886 1.343.886h15.1A1.45 1.45 0 0025 23.548v-10.68l-6.275 6.28z"/></svg>
